X:1
T:Title
%%score 1 { ( 2 4 ) | 3 }
L:1/8
M:4/4
K:D
V:1 treble nm="Akkordion"
V:2 bass nm="Grand Piano"
V:4 bass 
V:3 bass 
V:1
 z4 z2[Q:1/4=100] D>E | F2 F>F F2 E>D | A6 A>A | c2 BA G2 FE | F6 D>E | F2 F>F F2 ED | A6 A>A | %7
 c2 BA G2 FE | D6 A>A | [GA]2 [GA]>[GA] [GB]2 [Gc]>[Gc] | [Fd]6 [FA]>[FA] | %11
 [Ac]2 [GB][FA] [EG]2 [DF][CE] | [DF]6 [FA]>[FA] | [GA]2 [GA]>[GA] [GB]2 [Gc]>[Gc] | %14
 [Fd]6 [Fd]>[Fd] | [^Gd]2 [Gc][Gd] [Gf]2 [Ge][Gd] |[M:2/4] [Gc]4 | z4 |[M:4/4] z8 | z8 | z8 | z8 | %22
 z8 |[M:9/8] z9 | %24
[M:4/4] z8[Q:1/4=99][Q:1/4=97][Q:1/4=96][Q:1/4=94][Q:1/4=93][Q:1/4=91][Q:1/4=90][Q:1/4=88][Q:1/4=87][Q:1/4=85][Q:1/4=84][Q:1/4=82][Q:1/4=81][Q:1/4=79][Q:1/4=78][Q:1/4=76] | %25
[M:3/4] z6 |] %26
V:2
 z4 z2 D>E | z A,[K:treble]FA,[K:bass] z A,[K:treble]FA, | %2
 z A,[K:treble]FA,[K:bass] z A,[K:treble]FA, | z A,[K:treble]GA,[K:bass] z A,[K:treble]GA, | %4
 z A,[K:treble]FA,[K:bass] z A,[K:treble]FA, | z A,[K:treble]FA,[K:bass] z A,[K:treble]FA, | %6
 z A,[K:treble]FA,[K:bass] z A,[K:treble]FA, | z A,[K:treble]GA,[K:bass] z A,[K:treble]GA, | %8
 z A,[K:treble]FA,[K:bass] z A,[K:treble]FA, | z A,[K:treble]GA,[K:bass] z A,[K:treble]GA, | %10
 z A,[K:treble]FA, .A,2 FA, | z A,[K:treble]GA,[K:bass] z A,[K:treble]GA, | %12
 z A,[K:treble]FA, .A,2 FA, | z A,[K:treble]GA,[K:bass] z A,[K:treble]GA, | %14
 z A,[K:treble]FA,[K:bass] z A,[K:treble]FA, | z B,[K:treble]^GB,[K:bass] z B,[K:treble]GB, | %16
[M:2/4] [CEA]4 | [CGB]2 [EGA]2 |[M:4/4] [FA]2 [FA]>[FA] [Fd]2 [FA]>[F^A] | c2 B>^A B2 B>B | %20
 [^GB]2 [GB]>[GB] [Ge]2 [Gd]>[Gd] | [EAc]4 [CGB]2 [EGA]2 | [FA]2 [FA]>[FA] [Fd]2 [Fd]>[Fd] | %23
[M:9/8] [Dd]2 [FA]- [FA]/[F^A]/ B2- Bcd |[M:4/4] A2 [EG][DF] [B,G]2 [CF]>[CE] |[M:3/4] D6 |] %26
V:3
 z8 | D,,2 .D2 D,,2 .D2 | D,,2 .D2 D,,2 .D2 | A,,,2 .C2 A,,,2 .C2 | D,,2 .D2 D,,2 .D2 | %5
 D,,2 .D2 D,,2 .D2 | D,,2 .D2 D,,2 .D2 | A,,,2 .C2 A,,,2 .C2 | D,,2 .D2 D,,2 .D2 | %9
 A,,,2 .C2 G,,,2 .C2 | D,,2 .D2 [D,,D,]2 .D2 | A,,,2 .C2 A,,,2 .C2 | D,,2 .D2 [D,,D,]2 .D2 | %13
 A,,,2 .C2 A,,,2 .C2 | D,,2 .D2 D,,2 .D2 | E,,2 .D2 E,,2 .D2 |[M:2/4] [A,,,A,,]4 | A,,2 C,2 | %18
[M:4/4] [D,D]2 [D,D]>[D,D] [D,A,]2 [D,D]>[D,D] | [G,DG]2 [G,DG]>[G,DG] [G,DG]2 [G,DG]>[G,DG] | %20
 [E,D]2 [E,D]>[E,D] [E,B,]2 [E,E]>[E,E] | A,,4 A,,2 C,2 | %22
 [D,D]2 [D,D]>[D,D] [D,A,]2 [D,A,]>[D,A,] | %23
[M:9/8] [F,A,]2 [D,D]- [D,D]/[D,D]/[K:treble] [G,DG]2- [G,DG][^G,D=F][G,B,F] | %24
[M:4/4] [A,F]2[K:bass] [A,,A,][A,,A,] [A,,A,]2 [A,,A,]>[A,,G,] |[M:3/4] [D,F,]6 |] %26
V:4
 x8 | D,2[K:treble] z2[K:bass] D,2[K:treble] z2 | D,2[K:treble] z2[K:bass] D,2[K:treble] z2 | %3
 A,,2[K:treble] z2[K:bass] A,,2[K:treble] z2 | D,2[K:treble] z2[K:bass] D,2[K:treble] z2 | %5
 D,2[K:treble] z2[K:bass] D,2[K:treble] z2 | D,2[K:treble] z2[K:bass] D,2[K:treble] z2 | %7
 A,,2[K:treble] z2[K:bass] A,,2[K:treble] z2 | D,2[K:treble] z2[K:bass] D,2[K:treble] z2 | %9
 A,,2[K:treble] z2[K:bass] A,,2[K:treble] z2 | D,2[K:treble] z2 z4 | %11
 A,,2[K:treble] z2[K:bass] A,,2[K:treble] z2 | D,2[K:treble] z2 z4 | %13
 A,,2[K:treble] z2[K:bass] A,,2[K:treble] z2 | D,2[K:treble] z2[K:bass] D,2[K:treble] z2 | %15
 E,2[K:treble] z2[K:bass] E,2[K:treble] z2 |[M:2/4] x4 | x4 |[M:4/4] x8 | x8 | x8 | x8 | x8 | %23
[M:9/8] x9 |[M:4/4] x8 |[M:3/4] x6 |] %26

